X: 139
T: Ciebie, Ojcze, wzywam, łaskawy, Ty moje
C: Mikołaj Gomółka
%%abc-version 2.0
%%abcx-abcm2ps-target-version 5.9.1 (29 Sep 2008)
%%abc-creator hum2abc beta
%%abcx-conversion-date 2021/10/04 07:59:08
%%abc-edited-by Marta Lawrence
%%abcx-initial-encoding-date 2020-02-23
%%humdrum-veritas 417266639
%%humdrum-veritas-data 3694483699
%%linebreak <none>
%%barnumbers 0
L: 1/4
M: C|
N: Derived from pl-wn--sd-xvi-qu-273--141_gomolka-mikolaj--ciebie-ojcze-wzywam-laskawy-ty-moje.krn
%%staves [1 2 3 4]
V: 1 clef=treble
V: 2
V: 3 clef=alto
V: 4
K: Bb
[V:1] G2>A2BGBc [|] 
[V:2] D2D=E/F/GDG2 [|] 
[V:3] G,/A,/B,/C/DC2<B,2G, [|] 
[V:4] G,>A,B,A,G,G,2F,/=E,/ [|] 
[V:1] d>cd/=e/fed2c [|] 
[V:2] F>GA2B2A3/G/ [|] 
[V:3] A,2F2G>F=E/D/E [|] 
[V:4] D,D,D2G,G,A,2 [|] 
[V:1] dfff_e2d2 [|] 
[V:2] ^FABdc>BA2 [|] 
[V:3] DDFDG2FD [|] 
[V:4] D,D,B,,B,C2DD, [|] 
[V:1] c>d_e2d>cBc/B/ [|] 
[V:2] A2G>AB>AGd [|] 
[V:3] A,>B,C2B,>CD/G,/G2 [|] 
[V:4] F,2_E,>F,G,>A,B,G, [|] 
[V:1] A/G/AG2d2d=e2 [|] 
[V:2] d>cB2B2B_E/=F/ [|] 
[V:3] FG2F/=E/D/C/B,2 [|] 
[V:4] D2G,2B,>A,G,/F,/=E,2 [|] 
[V:1] dc2B2d2 [|] 
[V:2] G/A/B2AB2F2 [|] 
[V:3] B,/C/D/=E<FE<DC/B,F,/G,/ [|] 
[V:4] B,,F,2B,,B,,>C,D,/=E,/ [|] 
[V:1] c>BAB2AB2 [|] 
[V:2] FD/=E/FFD/E/FFG [|] 
[V:3] A,B,CDB,CDB,3/ [|] 
[V:4] F,G,F,D,G,F,B,G,2 [|] 
[V:1] d2A/B/c2G/A/B2 [|] 
[V:2] D/=E/F2C/D/_E2B,/C/D/E/ [|] 
[V:3] C/D2A,/B,/C2G,/A,/B, [|] 
[V:4] D,/=E,/F,2C,/D,/_E,2B,, [|] 
[V:1] A/B/c2BAG2F [|] 
[V:2] F2FG/F/ F/_E/D/C<DC/ [|] 
[V:3] CC>D=E/D/ C/B,/A,/G,/A,2 [|] 
[V:4] F,/G,/A,2B,F,G,D,2 [|] 
[V:1] G32 |]  
[V:2] B,32 |]  
[V:3] G,32 |]  
[V:4] G,32 |]  


